X: 10188
T: Dinny O'Brien's
R: jig
M: 6/8
K: Gmajor
B2 G AGF|DGF G2A|BGB cBc|ABG FGA|
BGB cBc|def gag|fdc Adc|1 AGF G2A:|2 AGF GBd||
g3 faf|gdB G2e|=f3 ege|=fcA ^FGA|
BGB cBc|def gag|fdc Adc|1 AGF GBd:|2 AGF G2A||

